X:1
T:Title
%%score { ( 1 4 ) | ( 2 3 ) }
L:1/8
Q:1/4=100
M:4/4
K:G
V:1 treble nm="Grand Piano"
V:4 treble 
V:2 bass 
V:3 bass 
V:1
 [DB]>[DA] [G,DG]>[A,CF] [G,B,G]4 | [G,CE]>[G,DF] [G,EG]>[G,CE] [G,B,D]4 | %2
w: T.~E.~Perkins * * * *||
 [G,CE]>[G,CE] [A,DF]>[A,DF] [DG]2 A2 | B4 A2 z2 | [DB]>[DA] [G,DG]>[A,CF] [G,B,G]4 | %5
w: |||
 [G,CE]>[G,DF] [G,EG]>[G,CE] [G,B,D]4 | [G,E]>[A,DF] [G,DG]>[EA] [DB]2 [CFA]2 | [B,G]6 z2 | %8
w: |||
 B>_B =B>c d2 B2 | z4 c2 z2 | B>c d>e d2 B2 | [FA]6 z2 | [DB]>[DA] [G,DG]>[A,CF] [G,B,G]4 | %13
w: |||||
 [G,CE]>[G,DF] [G,EG]>[G,CE] [G,B,D]4 | [G,E]>[A,DF] [G,DG]>[EA] [DB]2 [CFA]2 |[M:8/4] [B,G]8 z8 |] %16
w: |||
V:2
 [G,,G,]>[A,,F,] C,>D, G,,4 | C,>C, C,>C, G,,4 | C,>C, C,>C, B,,2 [D,F,D]2 | D6 z2 | %4
 [G,,G,]>[A,,F,] B,,>D, G,,4 | C,>C, C,>C, G,,4 | C,>C, B,,>[C,G,] [D,G,]2 D,2 | G,,6 z2 | z4 D4 | %9
 z4 A,2 z2 | [G,DG]>[G,A,G] [G,B,G]>[G,CG] [G,B,G]2 [G,DG]2 | [D,D]6 z2 | %12
 [G,,G,]>[A,,F,] B,,>D, G,,4 | C,>C, C,>C, G,,4 | C,>C, B,,>[C,G,] [D,G,]2 D,2 |[M:8/4] G,,8 z8 |] %16
V:3
 x8 | x8 | x8 | G,4 [D,F,]2 z2 | x8 | x8 | x8 | x8 | [G,D]>[G,^CE] [G,D]>[G,A,D] [G,B,]2 G,2 | %9
 D,>D, D,>D, D,2- [D,D]2 | x8 | x8 | x8 | x8 | x8 |[M:8/4] x16 |] %16
V:4
 x8 | x8 | x8 | x8 | x8 | x8 | x8 | x8 | x8 | [DFA]>[B,=F^G] [C^FA]>[B,GB] F2- [FA]2 | x8 | x8 | %12
 x8 | x8 | x8 |[M:8/4] x16 |] %16

